X:1
T:The Last Chance
T:The Last Chance
T:O. E. Mattox
T:George A. LeClere, 1895
T:Public Domain Courtesy of the Cyber Hymnal™
T:Public Domain Courtesy of the Cyber Hymnal™
C:O. E. Mattox
Z:Public Domain
Z:Courtesy of the Cyber Hymnal™
%%score ( 1 2 ) ( 3 4 )
L:1/8
Q:1/4=95
M:4/4
K:C
V:1 treble 
V:2 treble 
V:3 bass 
V:4 bass 
V:1
 [CE]>[DF] | [EG]>[EG] [EG]>[EG] [EG]2 [Ec]>[Fd] | [Ec]>[FB] [FB]>[FB] [FB]2 D>[CE] | %3
w: 1.~Do you|hear the voice of God As He|call- eth now to thee? Hear Him|
w: 2.~Ma- ny|times the voice has come, Call- ing|thee from paths of sin; Knock- ing|
w: 3.~Now’s the|time to let Him in, While He|calls to thee to- day; O- pen|
w: 4.~Now I|see my life’s mis- take, And I’m|com- ing to the Lord, It is|
 [DF]>[DF] [DF]>[DF] [FB]2 [FA]>[FB] | [FA]>[EG] [EG]>[^D^F] [EG]2 [CE]>[=D=F] | %5
w: speak in tend- erest tones As He|calls to mer- cy free; Oft He|
w: at the heart’s door loud, Plead- ing|that you let Him in; Yet you’ve|
w: wide the heart’s door now, Ere He|turns from thee a- way; All the|
w: “now the time” to come, So I|read His bless- èd Word; Now I|
 [EG]>[EG] [EG]>[Ec] [Ge]2 [Gc]>[Gc] | [Fd]>[FA] [FA]>[FA] [FA]2 [GB]>[FA] | %7
w: calls thee to His breast, And He|of- fers to thy soul, Wea- ry|
w: turned Him from your heart, By your|sin you’ve barred the door; You have|
w: lost souls now that die, In the|land of deep des- pair, Let their|
w: come my heart to cast At the|bless- èd Sav- ior’s feet, For I|
 [EG]<[Ec] [Ec][Fd] [Ec]2 [DB]2 | [Ec]6 ||"^Refrain" (3[CE][DF][^D^F] | [EG]4 [CE]2 [Ec]>[Fd] | %11
w: with its bur- den, rest, sweet|rest.|||
w: caused the Spir- it to de-|part.|There is a|last chance for sal-|
w: last chance to be saved pass|by.|||
w: fear this chance will be the|last.|||
 [Ec]4 [DB]2 (3[B,D][B,D][CE] | [DF]4 [DB]2 (3[FA][GB][FA] | [EG]4 [CE]2 (3[CE][DF][^D^F] | %14
w: |||
w: va- tion, Do you not|hear Him ten- der- ly|call- ing— Ur- gent- ly|
w: |||
w: |||
 [EG]4 [CE]2 (3[Ec][DB][Ec] | [Fd]4 [FA]2 [GB]>[FA] | [EG]<[Ec] [Ec]>[Fd] [Ec]2 [DB]2 | %17
w: |||
w: call- ing, long He has|wait- ed, Turn, O|sin- ner, ere it is too|
w: |||
w: |||
 !fermata!c4 x2 |] %18
w: |
w: late.|
w: |
w: |
V:2
 x2 | x8 | x6 D3/2 x/ | x8 | x8 | x8 | x8 | x8 | x6 || x2 | x8 | x8 | x8 | x8 | x8 | x8 | x8 | %17
 (E>EF>F) E2 |] %18
V:3
 [C,G,]>[C,G,] | [C,C]>[C,C] [C,C]>[C,C] [C,C]2 [C,G,]>[C,G,] | %2
w: ~ ~|~ ~ ~ ~ ~ ~ ~|
 G,>[G,D] [G,D]>[G,D] [G,D]2 [G,B,]>G, | [G,B,]>[G,B,] [G,B,]>[G,B,] [G,D]2 [G,D]>[G,D] | %4
w: ~ ~ ~ ~ ~ ~ ~|~ ~ ~ ~ ~ ~ ~|
 [C,C]>[C,C] [C,C]>[C,C] [C,C]2 [C,G,]>[C,G,] | [C,C]>[C,C] [C,C]>[C,G,] [C,C]2 [E,C]>[E,C] | %6
w: ~ ~ ~ ~ ~ ~ ~|~ ~ ~ ~ ~ ~ ~|
 [F,A,]>[F,C] [F,C]>[F,C] [F,C]2 [G,D]>[G,C] | [G,C]<G, G,G, G,2 [G,,G,]2 | [C,G,]6 || z2 | %10
w: ~ ~ ~ ~ ~ ~ ~|~ ~ ~ ~ ~ ~|~||
 z2 (3[C,C][C,C][C,C] [C,G,][C,G,] z2 | z2 (3[C,G,][C,G,][C,G,] G,G, z2 | %12
w: There is a last chance|for ~ sal- va- tion,|
 z2 (3[G,B,][G,B,][G,B,] G,G, z2 | z2 (3[C,C][C,C][C,C] [C,G,][C,G,] z2 | %14
w: Do you not hear Him|ten- der- ly call- ing,|
 z2 (3[C,C][C,C][C,C] [C,G,][C,G,] z2 | z2 (3[F,A,][F,A,][F,A,] [F,C][F,C] [G,D]>[G,C] | %16
w: Ur- gent- ly call- ing,|long He has wait- ed * *|
 [G,C]<G, G,>G, G,2 [G,,G,]2 | !fermata!G,>G, A,>A, G,2 |] %18
w: ||
V:4
 x2 | x8 | G,3/2 x9/2 G,/ x3/2 | x8 | x8 | x8 | x8 | x/ G,3/2 G,G, G,2 x2 | x6 || x2 | x8 | %11
 x4 G,G, x2 | x4 G,G, x2 | x8 | x8 | x8 | x/ G,3/2 G,>G, G,2 x2 | C,4 x2 |] %18

